www/assets/icons/speaker_group.svg

<svg xmlns="http://www.w3.org/2000/svg" width="24" height="24" viewBox="0 0 24 24" fill='currentColor'><path d="M18.2 1H9.8C8.81 1 8 1.81 8 2.8v14.4c0 .99.81 1.79 1.8 1.79l8.4.01c.99 0 1.8-.81 1.8-1.8V2.8c0-.99-.81-1.8-1.8-1.8M14 3a2 2 0 1 1 .001 3.999A2 2 0 0 1 14 3m0 13.5c-2.21 0-4-1.79-4-4s1.79-4 4-4 4 1.79 4 4-1.79 4-4 4"/><path d="M14 15a2.5 2.5 0 1 0 0-5 2.5 2.5 0 0 0 0 5M6 5H4v16a2 2 0 0 0 2 2h10v-2H6z"/></svg>

<svg width="24" height="24" viewBox="0 0 24 24" xmlns="http://www.w3.org/2000/svg" fill='currentColor'><path d="M18.2 1H9.8C8.81 1 8 1.81 8 2.8V17.2C8 18.19 8.81 18.99 9.8 18.99L18.2 19C19.19 19 20 18.19 20 17.2V2.8C20 1.81 19.19 1 18.2 1ZM14 3C15.1 3 16 3.89 16 5C16 6.11 15.1 7 14 7C12.9 7 12 6.11 12 5C12 3.89 12.9 3 14 3ZM14 16.5C11.79 16.5 10 14.71 10 12.5C10 10.29 11.79 8.5 14 8.5C16.21 8.5 18 10.29 18 12.5C18 14.71 16.21 16.5 14 16.5Z"/><path d="M14 15C15.3807 15 16.5 13.8807 16.5 12.5C16.5 11.1193 15.3807 10 14 10C12.6193 10 11.5 11.1193 11.5 12.5C11.5 13.8807 12.6193 15 14 15Z"/><path d="M6 5H4V21C4 22.1 4.89 23 6 23H16V21H6V5Z"/></svg>
